X:1
T:Andante in G
T:Andante in G
T:Op.27
T:Ferdinando Carulli (1770-1841)
C:Ferdinando Carulli (1770-1841)
%%score { 1 | 2 }
L:1/8
M:12/8
K:G
V:1 treble-8 nm="Classical Guitar" snm="Guit."
V:2 tab stafflines=6 strings=E2,A2,D3,G3,B3,E4 nostems 
V:1
 BGd cAd dgf gfd | [Bd]3 [Ac]3 [GB]3 z2 z | A^GB AcB ce^d ecA | Bd^c d=cB A3 z2 z | %4
 BGd cAe dgf gfe | [Bd]3 [Ac]3 [GB]3 z2 z | A^GB cde dgd cBA | Ggd BdB G3 z2 z | %8
 dcB BA^G G2 z z ed | ced Bdc A2 z z2 z | cBA AGF F2 z z dc | Bdc AcB G2 z z2 z | %12
 e3 z2 z z AB cde | d3 z2 z z GA Bcd | efg ecA Ggd cBA | Ggd BdB G3 z2 z |] %16
V:2
 !2!B, !3!G, !2!D !2!C !3!A, !2!D !2!D !1!G !1!F !1!G !1!F !2!D | %1
 [!3!B,!2!D]3 [!3!A,!2!C]3 [!3!G,!2!B,]3 x2 x | %2
 !3!A, !3!^G, !2!B, !3!A, !2!C !2!B, !2!C !1!E !2!^D !1!E !2!C !3!A, | %3
 !2!B, !2!D !2!^C !2!D !2!=C !2!B, !3!A,3 x2 x | %4
 !2!B, !3!G, !2!D !2!C !3!A, !1!E !2!D !1!G !1!F !1!G !1!F !1!E | %5
 [!3!B,!2!D]3 [!3!A,!2!C]3 [!3!G,!2!B,]3 x2 x | %6
 !3!A, !3!^G, !2!B, !2!C !2!D !1!E !2!D !1!G !2!D !2!C !2!B, !3!A, | %7
 !3!G, !1!G !2!D !2!B, !2!D !2!B, !3!G,3 x2 x | %8
 !2!D !2!C !2!B, !2!B, !3!A, !3!^G, !3!G,2 x x !1!E !2!D | %9
 !2!C !1!E !2!D !2!B, !2!D !2!C !3!A,2 x x2 x | %10
 !2!C !2!B, !3!A, !3!A, !3!G, !4!F, !4!F,2 x x !2!D !2!C | %11
 !2!B, !2!D !2!C !3!A, !2!C !2!B, !3!G,2 x x2 x | !1!E3 x2 x x !3!A, !2!B, !2!C !2!D !1!E | %13
 !2!D3 x2 x x !3!G, !3!A, !2!B, !2!C !2!D | %14
 !1!E !1!F !1!G !1!E !2!C !3!A, !3!G, !1!G !2!D !2!C !2!B, !3!A, | %15
 !3!G, !1!G !2!D !2!B, !2!D !2!B, !3!G,3 x2 x |] %16

